X:110
T:Quadrille
S:John Moore's Book 2
Z:Transcribed by Steve Mansfield 05/2021
%%VWML: Moore2-4494-p85-0
F:http://www.vwml.org/record/Moore2/4494/p85
M:6/8
L:1/8
K:D
A | Aff cee | A3 A2B | A2F A2F | A2G E2A | 
Aff cee | B3 BAG | FAF GEC | E3 D2 :|
|: F | GEC A2G | FAd f2d | gec A2F | G3 F2F | 
GEC A2G | FAd f2d | Bef gec | e3 e2 ||
^A | B3 d3 | c3 ec^A | Bdf gec | B3 ^A3 | 
B3 d3 | c3 e2c | edc dc^A | B3- B2 !D.C.!||

